src/assets/images/testimonial/amy-shape.svg

<svg height="40" viewBox="0 0 43 40" width="43" xmlns="http://www.w3.org/2000/svg"><path d="m48.8664854 42.8676034c-1.1253029 3.3452659-3.162278 5.8890914-6.0115939 7.7467816-2.3512979 1.5274341-4.8917338 2.50112-7.6131435 3.0221274-2.7690343.5466306-5.5203794.5551717-8.2798888-.1921749-2.2887055-.6391593-4.3501733-1.7580439-6.2497173-3.238502-2.9132925-2.2434098-5.4556393-4.9709189-7.5260584-8.0741906-1.3470977-2.0285122-2.4179724-4.1837175-2.9159904-6.60085-.48985373-2.3160628-.29255153-4.5766084.4231792-6.7958719.7075665-2.1950638 1.8029339-4.1723295 3.0969642-6.0243256 2.0002361-2.8199879 4.2998272-5.3552723 6.979055-7.4805838 1.9117903-1.5274341 3.9718974-2.751659 6.3163918-3.4306768 2.2097847-.6291947 4.4032408-.5509013 6.6048612.1138814 2.3839549.7146057 4.5120972 1.967301 6.500087 3.5061233 2.2859841 1.7822437 4.2957451 3.8591555 5.9503622 6.314723 1.6226543 2.4193107 2.7484944 5.1641432 3.3065127 8.0613789.2231556 1.2768951.3728331 2.5267433.4844109 3.1659026.2109093 3.7950973-.0476247 6.9126004-1.0654319 9.9062574z" fill="#fc6e69" fill-rule="evenodd" transform="matrix(-.64278761 .76604444 -.76604444 -.64278761 67.331308 17.574895)"/></svg>

<svg xmlns="http://www.w3.org/2000/svg" width="43" height="40" viewBox="0 0 43 40">
  <path fill="#FC6E69" fill-rule="evenodd" d="M48.8664854,42.8676034 C47.7411825,46.2128693 45.7042074,48.7566948 42.8548915,50.614385 C40.5035936,52.1418191 37.9631577,53.115505 35.241748,53.6365124 C32.4727137,54.183143 29.7213686,54.1916841 26.9618592,53.4443375 C24.6731537,52.8051782 22.6116859,51.6862936 20.7121419,50.2058355 C17.7988494,47.9624257 15.2565026,45.2349166 13.1860835,42.1316449 C11.8389858,40.1031327 10.7681111,37.9479274 10.2700931,35.5307949 C9.78023937,33.2147321 9.97754157,30.9541865 10.6932723,28.734923 C11.4008388,26.5398592 12.4962062,24.5625935 13.7902365,22.7105974 C15.7904726,19.8906095 18.0900637,17.3553251 20.7692915,15.2300136 C22.6810818,13.7025795 24.7411889,12.4783546 27.0856833,11.7993368 C29.295468,11.1701421 31.4889241,11.2484355 33.6905445,11.9132182 C36.0744994,12.6278239 38.2026417,13.8805192 40.1906315,15.4193415 C42.4766156,17.2015852 44.4863766,19.278497 46.1409937,21.7340645 C47.763648,24.1533752 48.8894881,26.8982077 49.4475064,29.7954434 C49.670662,31.0723385 49.8203395,32.3221867 49.9319173,32.961346 C50.1428266,36.7564433 49.8842926,39.8739464 48.8664854,42.8676034 Z" transform="rotate(130 29.568 24.486)"/>
</svg>
